styles/3/Numix/48/places/brown-folder-download.svg

<!-- Created with Inkscape (http://www.inkscape.org/) -->
<svg xmlns="http://www.w3.org/2000/svg" viewBox="0 0 48 48">
 <g transform="translate(0,-1004.3622)">
  <rect width="38" height="15" x="5" y="1014.36" style="fill:#5d4037;fill-opacity:1;stroke:none"/>
  <path d="m 10 1016.36 c 0 -2 0 -4 2 -4 l 7 0 c 2 0 2 2 2 4 z" style="fill:#5d4037;fill-opacity:1;stroke:none"/>
  <path d="m 9 1017.36 31 0 0 7 -31 0 z" style="fill:#95989f;fill-opacity:1;stroke:none"/>
  <rect y="1016.36" x="11" height="20" width="28" style="fill:#d8d8da;fill-opacity:1;stroke:none"/>
  <rect width="28" height="20" x="10" y="1019.36" style="fill:#f9f9f9;fill-opacity:1;stroke:none"/>
  <path d="m 2 1020.36 44 0 -4 24 -37 0 z" style="fill:#8d6e63;fill-opacity:1;stroke:none"/>
  <path d="m 24 21 c -1.108 0 -2 0.892 -2 2 l 0 5 l -2 0 c -1 0 -1 0 0 1 l 3 3 c 1 1 1 1 2 0 l 3 -3 c 1 -1 1 -1 0 -1 l -2 0 l 0 -5 c 0 -1.108 -0.892 -2 -2 -2 z m -7 8 c -0.554 0 -1 0.446 -1 1 l 0 5 c 0 0.554 0.446 1 1 1 l 14 0 c 0.139 0 0.255 -0.043 0.375 -0.094 c 0.359 -0.151 0.625 -0.491 0.625 -0.906 l 0 -5 c 0 -0.554 -0.446 -1 -1 -1 c -0.554 0 -1 0.446 -1 1 l 0 4 l -12 0 l 0 -4 c 0 -0.554 -0.446 -1 -1 -1 z" transform="translate(0,1004.3622)" style="fill:#634b43;opacity:1;fill-opacity:1;stroke:none"/>
 </g>
</svg>

<?xml version="1.0" encoding="UTF-8" standalone="no"?>
<!-- Created with Inkscape (http://www.inkscape.org/) -->

<svg
   xmlns:dc="http://purl.org/dc/elements/1.1/"
   xmlns:cc="http://creativecommons.org/ns#"
   xmlns:rdf="http://www.w3.org/1999/02/22-rdf-syntax-ns#"
   xmlns:svg="http://www.w3.org/2000/svg"
   xmlns="http://www.w3.org/2000/svg"
   xmlns:sodipodi="http://sodipodi.sourceforge.net/DTD/sodipodi-0.dtd"
   xmlns:inkscape="http://www.inkscape.org/namespaces/inkscape"
   width="48"
   height="48"
   id="svg2"
   version="1.1"
   inkscape:version="0.91 r"
   sodipodi:docname="brown-folder-download.svg"
   inkscape:export-filename="/home/me4oslav/Desktop/folder.png"
   inkscape:export-xdpi="270"
   inkscape:export-ydpi="270">
  <defs
     id="defs4" />
  <sodipodi:namedview
     id="base"
     pagecolor="#ffffff"
     bordercolor="#666666"
     borderopacity="1.0"
     inkscape:pageopacity="0.0"
     inkscape:pageshadow="2"
     inkscape:zoom="9.9407525"
     inkscape:cx="9.6178982"
     inkscape:cy="22.92046"
     inkscape:document-units="px"
     inkscape:current-layer="layer1"
     showgrid="true"
     inkscape:window-width="1280"
     inkscape:window-height="998"
     inkscape:window-x="0"
     inkscape:window-y="0"
     inkscape:window-maximized="1">
    <inkscape:grid
       type="xygrid"
       id="grid2985"
       empspacing="5"
       visible="true"
       enabled="true"
       snapvisiblegridlinesonly="true" />
  </sodipodi:namedview>
  <metadata
     id="metadata7">
    <rdf:RDF>
      <cc:Work
         rdf:about="">
        <dc:format>image/svg+xml</dc:format>
        <dc:type
           rdf:resource="http://purl.org/dc/dcmitype/StillImage" />
        <dc:title />
      </cc:Work>
    </rdf:RDF>
  </metadata>
  <g
     inkscape:label="Layer 1"
     inkscape:groupmode="layer"
     id="layer1"
     transform="translate(0,-1004.3622)">
    <rect
       style="fill:#5d4037;fill-opacity:1;stroke:none"
       id="rect3757"
       width="38"
       height="15"
       x="5"
       y="1014.3622" />
    <path
       style="fill:#5d4037;fill-opacity:1;stroke:none"
       d="m 10,1016.3622 c 0,-2 0,-4 2,-4 l 7,0 c 2,0 2,2 2,4 z"
       id="path3759"
       inkscape:connector-curvature="0"
       sodipodi:nodetypes="ccccc" />
    <path
       style="fill:#95989f;fill-opacity:1;stroke:none"
       d="m 9,1017.3622 31,0 0,7 -31,0 z"
       id="path3765"
       inkscape:connector-curvature="0" />
    <rect
       y="1016.3622"
       x="11"
       height="20"
       width="28"
       id="rect3763"
       style="fill:#d8d8da;fill-opacity:1;stroke:none" />
    <rect
       style="fill:#f9f9f9;fill-opacity:1;stroke:none"
       id="rect3761"
       width="28"
       height="20"
       x="10"
       y="1019.3622" />
    <path
       style="fill:#8d6e63;fill-opacity:1;stroke:none"
       d="m 2,1020.3622 44,0 -4,24 -37,0 z"
       id="path2987"
       inkscape:connector-curvature="0"
       sodipodi:nodetypes="ccccc" />
    <path
       style="opacity:1.0;fill:#634b43;fill-opacity:1;stroke:none"
       d="M 24 21 C 22.892 21 22 21.892 22 23 L 22 28 L 20 28 C 19 28 19 28 20 29 L 23 32 C 24 33 24 33 25 32 L 28 29 C 29 28 29 28 28 28 L 26 28 L 26 23 C 26 21.892 25.108 21 24 21 z M 17 29 C 16.446 29 16 29.446 16 30 L 16 35 C 16 35.554 16.446 36 17 36 L 31 36 C 31.1385 36 31.255281 35.956719 31.375 35.90625 C 31.734156 35.754844 32 35.4155 32 35 L 32 30 C 32 29.446 31.554 29 31 29 C 30.446 29 30 29.446 30 30 L 30 34 L 18 34 L 18 30 C 18 29.446 17.554 29 17 29 z "
       transform="translate(0,1004.3622)"
       id="rect2989" />
  </g>
</svg>
